storage/app/icons/phosphoricons/duotone/car-duotone.svg

<svg xmlns="http://www.w3.org/2000/svg" fill="currentColor" viewBox="0 0 256 256"><path d="M184 176h40v24a8 8 0 0 1-8 8h-24a8 8 0 0 1-8-8ZM32 200a8 8 0 0 0 8 8h24a8 8 0 0 0 8-8v-24H32ZM194.11 44.75A8 8 0 0 0 186.8 40H69.2a8 8 0 0 0-7.31 4.75L32 112h192Z" opacity=".2"/><path d="M240 104h-10.8l-27.78-62.5A16 16 0 0 0 186.8 32H69.2a16 16 0 0 0-14.62 9.5L26.8 104H16a8 8 0 0 0 0 16h8v80a16 16 0 0 0 16 16h24a16 16 0 0 0 16-16v-16h96v16a16 16 0 0 0 16 16h24a16 16 0 0 0 16-16v-80h8a8 8 0 0 0 0-16M69.2 48h117.6l24.89 56H44.31ZM64 200H40v-16h24Zm128 0v-16h24v16Zm24-32H40v-48h176ZM56 144a8 8 0 0 1 8-8h16a8 8 0 0 1 0 16H64a8 8 0 0 1-8-8m112 0a8 8 0 0 1 8-8h16a8 8 0 0 1 0 16h-16a8 8 0 0 1-8-8"/></svg>

<svg xmlns="http://www.w3.org/2000/svg" viewBox="0 0 256 256" fill="currentColor"><path d="M184,176h40v24a8,8,0,0,1-8,8H192a8,8,0,0,1-8-8ZM32,200a8,8,0,0,0,8,8H64a8,8,0,0,0,8-8V176H32ZM194.11,44.75A8,8,0,0,0,186.8,40H69.2a8,8,0,0,0-7.31,4.75L32,112H224Z" opacity="0.2"/><path d="M240,104H229.2L201.42,41.5A16,16,0,0,0,186.8,32H69.2a16,16,0,0,0-14.62,9.5L26.8,104H16a8,8,0,0,0,0,16h8v80a16,16,0,0,0,16,16H64a16,16,0,0,0,16-16V184h96v16a16,16,0,0,0,16,16h24a16,16,0,0,0,16-16V120h8a8,8,0,0,0,0-16ZM69.2,48H186.8l24.89,56H44.31ZM64,200H40V184H64Zm128,0V184h24v16Zm24-32H40V120H216ZM56,144a8,8,0,0,1,8-8H80a8,8,0,0,1,0,16H64A8,8,0,0,1,56,144Zm112,0a8,8,0,0,1,8-8h16a8,8,0,0,1,0,16H176A8,8,0,0,1,168,144Z"/></svg>
